X:15537
T:Skipper Schottishe (Thor Hrdelin)
C:C. Parkinson: Out Of His Tree
M:2/4
L:1/16
K:G
G,2B,D GDED|GDED G4|G,2B,D GDED|GDED {^E/}F4|\
D2FA {B/}c2BA|c2BA d3d|
dedB c2AF|1 G4-GEDB,:|2 G6 Bc||\
|:d2dB  G2Bc|dedB G2B2|B2AG B2AG|
B2AG A2AB|\
c2cA F2AB|cdcA F2AB|c2BA d2BA|1 G6 Bc:|2 G4-GEDB,||
